X: 852
T: The flowers of Limerick
C: anon.
O: Ireland
B: Francis O'Neill: "The Dance Music of Ireland" (1907) no. 768
R: Reel
Z: Transcribed by Frank Nordberg - http://www.musicaviva.com
F: http://www.musicaviva.com/abc/tunes/ireland/oneill-1001/oneill-1001-076
8.abc
M: C|
L: 1/8
K: G
(GF)|DGGF G2(GA)|BGcA BGAF|DFFE F2(FG)|AGAc BGFD|DGGF G2(GA)|BAGA Bcde|fe
fd cAFA|BGAF G2||
(GA)|Gggf g2(ga)|bgga bgaf|d^cde fefg|abag fdcA|dggf g3(d|BAG)A Bcde|fefd
 cAFA|BGAF G2||
(GF)|DGGA BAGB|dcBd cBAG|FGAB cAFA|cBcA BGAF|GFGA BABd|cBAB cdeg|fefd cAF
A|BGAF G2||
(df)|gddf gbag|fede fgaf|eccd efge|dcBA GcBA|G2(GA) BcBd|cBAB cdeg|fefd c
AFA|BGAF G2|]
W:
W:
W: From Musica Viva - http://www.musicaviva.com
W: the Internet center for free sheet music downloads.


